X:443
T:Reel 443
M:4/4
K:Amaj
L:1/8
ED|C>A, (3A,A,A, CA,EA,|C>A, (3A,A,A, A2GA|BB, (3B,B,B, BB,BB,|DBFB,  (3B,FE DB,|C>A, (3A,A,A, E,A,CA,|C|EAGA FGAF|BABc dBBA|GEFG AECD|EA, (3A,A,A, E,A,CA,|EA,A,C DEFG|EA, (3A,A,A, E,A,CA,|DCB,A, G,A,B,D|EA, (3CB,A, EA,FA,|EA,CA, F,A,DF|AEFG AGAF|EDCB, A,2CD|EA, (3A,A,A, E,A,CA,|EA, (3A,A,A, EFDC|EB, (3B,B,B, FB, (3B,B,B, |DEFG FGAF|EA, (3A,A,A, E,A,CA,|EA,EA, FA,FA,|DEFG AFEC|DCB,A, G,A,ED|
